X:1
T:Domine, tu es spes mea
T:Ignatio Donati
T:Source : Primo libro di Motetti a voce sola---Venetia---A.Vincenti---1634. Editor : André Vierendeels ( 13/12/16).
T:Notes : Original clefs : C1, F4 Editorial accidentals above the staff Original note values have been halved in 3-beat  measures Figures in BC are notated in original print "Canto o Tenore" 
T:Domine, tu es spes mea
T:©
T:©
T:©
T:©
T:©
T:©
T:©
C:Ignatio Donati
Z:©
%%score 1 2
L:1/8
Q:1/4=120
M:4/4
K:F
V:1 treble nm="Soprano" snm="S"
V:2 bass nm="MusicXML Part"
V:1
 z4 d4- | d2 d/c/B/A/ B4- | B2 G/A/B c2 B/c/d | A8 | G8 | z4 f4- | f2 f/e/d/c/ d4- | %7
w: Do-|* mi- * * * ne,|_ tu _ _ es spes _ _|me|a,|Do-|* mi- * * * ne,|
 d2 B/c/d _e2 d/e/f | c8 | B4 z dBc | d2 cB A2 A2 | z _ecd e2 dc | =B4 B4 | c8- | c3 G G4 | %15
w: _ tu _ _ es spes _ _|me-|a, et con- so-|la- ti- o me- a,|et con- so- la- ti- o|me- a,|lu-|* men me-|
 F4 z GFG | A2 GF E2 E2 | z BGA B2 AG | ^F4 F4 | A8- | A3 E E4 | D4 z ABA | ^F2 FF G4- | G4 ^F4 | %24
w: um, et con- so-|la- ti- o me- a,|et con- so- la- ti- o|me- a,|lu-|* men me-|um, et de- si-|de- ri- um me-||
 G4 z d_ed | =B2 BB c4- | c4 =B4 | c8 | z4 z c=Bc | E4 F4 | G2 G2 B4- | B2 B2 _A>B c2 | G6 F2 | %33
w: um, et de- si-|de- ri- um me-||um,|su- cur- re|mi- hi|De- us an-|* te- quam _ _|mo- ri-|
 F8 | z4 z fef | A4 B4 | c2 c2 _e4- | e2 _e2 d>e f2 | c6 B2 | B4 z4 | z2 _e/d/c/B/ c3 d | %41
w: ar,|su- cur- re|mi- hi|De- us an-|* te- quam _ _|mo- ri-|ar,|te _ _ _ de- pre-|
 =B4 z2 c2 | G8 | F4 z4 | z2 B/A/G/F/ G3 A | ^F4 z2 A2 | E8 | D8 |[M:3/2] d4 d4 ^c4 | d8 z4 | %50
w: cor et|ro-|go,|te _ _ _ de- pre-|cor- et|ro-|go,|ad- iu- va|me,|
 c6 c2 =B4 | c8 z4 | B6 B2 A4 | B8 z4 | A6 A2 ^G4 |[M:4/4] A8 | z2 E2 F2 G2 | A2 A^C D2 E2 | %58
w: ad- iu- va|me,|ad- iu- va|me,|ad- iu- va|me,|et sal- vus|e- ro, et sal- vus|
 F/E/F/G/ A4 G/F/E/D/ | E8 | D8 |[M:3/2] d6 d2 ^c4 | d8 z4 | c6 c2 =B4 | c8 z4 | B6 B2 A4 | B8 z4 | %67
w: e- * * * * * * * *||ro,|ad- iu- va|me,|ad- iu- va|me,|ad- iu- va|me,|
 A6 A2 G4 |[M:4/4] A2 E2 F2 G2 | A2 A^C D2 E2 | F/E/F/G/ A4 G/F/E/D/ | %71
w: ad- iu- va|me, et sal- vus|e- ro, et sal- vus|e- * * * * * * * *|
 E2 A/4G/4F/4E/4F/4E/4F/4D/4 E4 | D2 A2 B2 c2 | d2 d^F G2 A2 | B/A/B/c/ d4 c/B/A/G/ | %75
w: |ro, et sal- vus|e- ro, et sal- vus|e- * * * * * * * *|
 A/B/c/A/ d/4c/4B/4A/4B/4A/4B/4G/4 A4 | G8 |] %77
w: |ro.|
V:2
"^BC" G,8 | ^F,4 G,4 | _E,4 C,4 |"^#" D,8 | G,,4 G,2 A,2 | B,8 | A,4 B,4 | G,4 _E,4 | F,8 | %9
 B,,4 B,,4 | B,,2 C,2 F,,4 |"^b""^#""^b" C,4 C,2 D,2 |"^-natural" G,,4 G,4 | E,2 F,2 C,2 A,,B,, | %14
 C,8 | F,,4 F,,4 |"^-natural" F,,2 G,,2 C,4 |"^#" G,,4 G,,2 A,,2 |"^#" D,8 | ^C,2 D,2 A,,2 F,,G,, | %20
"^#" A,,8 |"^#""^-natural" D,4 D,4 | D,4 =B,,2 C,2 |"^#" D,8 |"^-natural""^b" G,,4 G,,4 | %25
"^-natural" G,4 E,2 F,2 |"^-natural" G,8 | C,4 F,2 E,F, | A,,2 B,,2 C,4 | C,8 | C,4 B,,4 | C,8 | %32
 C,8 | F,,4 B,,2 A,,A,, | D,2 _E,2 F,4 | F,8 | F,4 _E,4 | F,8 | F,8 | B,,4 B,,2 _E,2 |"^b" C,8 | %41
"^-natural""^6" G,,4 A,,4 | C,8 | F,,4 F,,2 B,,2 | G,,8 |"^#" D,4 ^F,,4 |"^#" A,,8 |"^#" D,8 | %48
[M:3/2] G,4 B,4 A,4 | ^F,4 G,4 E,4 |"^-natural" F,4 A,4 G,4 |"^6" E,4 F,4 D,4 | _E,4 G,4 F,4 | %53
"^6" D,4 _E,4 C,4 |"^#" D,4 F,4 E,4 |[M:4/4] ^C,4 D,4 |"^#" A,,8 |"^#" A,,4 G,,4 | F,,4 D,4 | %59
 A,,8 |"^#" D,8 |[M:3/2] G,6 F,2 E,4 |"^#" D,6 C,2 =B,,4 |"^6" C,4 F,2 E,2 D,4 | C,6 B,,2 A,,4 | %65
 B,,4 _E,2 D,2 C,4 | B,,6 A,,2 G,,4 |"^#" A,,4 D,2 C,2 B,,4 |[M:4/4]"^#" A,,8 |"^#" A,,4 G,,4 | %70
 F,,4 D,4 |"^#" A,,8 |"^#" D,8 | D,4 C,4 | B,,4 G,,4 |"^#" D,8 | G,,8 |] %77

